X:1
T:Title
%%score { ( 1 3 ) | 2 }
L:1/8
M:6/8
K:Bb
V:1 treble nm="Grand Piano"
V:3 treble 
V:2 bass 
V:1
 z3 z2[Q:1/4=81] [DF] | [DF][EG][DF] [DB][EA][FB] | [Ec][GB][EG] [DF]2 [DF] | %3
 [DF][EG][DF] [FB][EA][DB] |[M:5/8] c-c- c3 |[M:1/8] F |[M:3/4] [Fd][=E_d] [F=d][DB] [EA][FB] | %7
[M:7/8] cBG [Ge]3 [Ge] |[M:3/4] dc Bc Fc |[M:5/8] [DB]-[DB]- [DB]3 |[M:1/8] F | %11
[M:3/4] Bd cB A[DB] | [Ec]6 | ce dc BA |[M:5/8] [DB]-[DB]- [DB]3 |[M:1/8] [DF] | %16
[M:3/4] [Fd][=E_d] [F=d][DB] [EA][FB] | cB G [Ge]2 [Ge] | dc Bc Fc |[M:5/8] [DB]-[DB]- [DB]3 |] %20
V:2
 z3 z2 [B,,B,] | [B,,B,][B,,B,][B,,B,] [B,,F,][C,F,][D,F,] | [E,G,][E,B,][E,B,] [B,,B,]2 [B,,B,] | %3
 [B,,B,][B,,B,][B,,B,] [D,B,][C,F,][B,,B,] |[M:5/8] [F,A,F]-[F,A,F]- [F,A,F]3 |[M:1/8] F, | %6
[M:3/4] [B,,B,][B,,B,] [B,,B,][B,,F,] [C,F,][D,F,] |[M:7/8] [E,G,E][E,G,E][E,B,E] [E,B,]3 [E,B,] | %8
[M:3/4] [F,B,F][F,A,E] [F,B,D][F,A,E] [F,A,E][F,A,E] |[M:5/8] [B,,F,]-[B,,F,]- [B,,F,]3 | %10
[M:1/8][K:treble] D |[M:3/4] DF ED C[K:bass][B,,F,] | [F,A,]F, F, F,2[K:treble] E | %13
 EG FE D[K:bass][F,C] |[M:5/8] [B,,F,]B,,B,, B,,2 |[M:1/8] [B,,B,] | %16
[M:3/4] [B,,B,][B,,B,] [B,,B,][B,,F,] [C,F,][D,F,] | [E,G,E][E,G,E] [E,B,E] [E,B,]2 [E,B,] | %18
 [F,B,F][F,A,E] [F,B,D][F,A,E] [F,A,E][F,A,E] |[M:5/8] [B,,F,]-[B,,F,]- [B,,F,]3 |] %20
V:3
 x6 | x6 | x6 | x6 |[M:5/8] x5 |[M:1/8] x |[M:3/4] x6 |[M:7/8] x7 |[M:3/4] x6 |[M:5/8] x5 | %10
[M:1/8] x |[M:3/4] x6 | z A, A, A,2 c | x6 |[M:5/8] z F,F, F,2 |[M:1/8] x |[M:3/4] x6 | x6 | x6 | %19
[M:5/8] x5 |] %20

